icons/double-quotes-l.svg

<svg xmlns="http://www.w3.org/2000/svg" width="24" height="24" fill="none"><g clip-path="url(#a)"><g><path fill="#121212" d="M4.583 17.321C3.553 16.227 3 15 3 13.011C3 9.511 5.457 6.374 9.03 4.823L9.923 6.201C6.588 8.005 5.936 10.346 5.676 11.822C6.213 11.544 6.916 11.447 7.605 11.511C9.409 11.678 10.831 13.159 10.831 15C10.831 15.9283 10.4623 16.8185 9.80587 17.4749C9.1495 18.1313 8.25926 18.5 7.331 18.5C6.258 18.5 5.232 18.01 4.583 17.321ZM14.583 17.321C13.553 16.227 13 15 13 13.011C13 9.511 15.457 6.374 19.03 4.823L19.923 6.201C16.588 8.005 15.936 10.346 15.676 11.822C16.213 11.544 16.916 11.447 17.605 11.511C19.409 11.678 20.831 13.159 20.831 15C20.831 15.9283 20.4623 16.8185 19.8059 17.4749C19.1495 18.1313 18.2593 18.5 17.331 18.5C16.258 18.5 15.232 18.01 14.583 17.321Z"/></g></g><defs><clipPath id="a"><rect width="24" height="24" fill="white"/></clipPath></defs></svg>

<svg width="24" height="24" fill="none" xmlns="http://www.w3.org/2000/svg"><g clip-path="url(#a)"><path d="M4.583 17.321C3.553 16.227 3 15 3 13.011c0-3.5 2.457-6.637 6.03-8.188l.893 1.378c-3.335 1.804-3.987 4.145-4.247 5.621.537-.278 1.24-.375 1.929-.311 1.804.167 3.226 1.648 3.226 3.489a3.5 3.5 0 0 1-3.5 3.5 3.871 3.871 0 0 1-2.748-1.179Zm10 0C13.553 16.227 13 15 13 13.011c0-3.5 2.457-6.637 6.03-8.188l.893 1.378c-3.335 1.804-3.987 4.145-4.247 5.621.537-.278 1.24-.375 1.929-.311 1.804.167 3.226 1.648 3.226 3.489a3.5 3.5 0 0 1-3.5 3.5 3.871 3.871 0 0 1-2.748-1.179Z" /></g><defs><clipPath id="a"><path fill="#fff" d="M0 0h24v24H0z"/></clipPath></defs></svg>
